X:1
T:Ga
L:1/4
M:4/4
I:linebreak $
K:G
V:1 treble
V:1
 D E G B | _A B e/_e/ | d B G D | E2 E D |$"A7" ^C E (3:2:2G B |"D7" (3:2:1^A B D E | G2 z2 | z |$ %8
"G6" D E G B | _B2 B e/_e/ | d B G D |"E7" E E D |$ ^C E G B | ^A B D E | G2 z2 | %15
